images/computer/SVG/ecole.svg

<svg width="96" height="101" viewBox="0 0 96 101" fill="none" xmlns="http://www.w3.org/2000/svg">
<g clip-path="url(#clip0_262_199)">
<path d="M92.7398 55.5801H2.83984V94.8701H92.7398V55.5801Z" fill="#FFD103"/>
<path d="M94.2398 96.3701H1.33984V54.0801H94.2398V96.3701ZM4.33984 93.3701H91.2398V57.0801H4.33984V93.3701Z" fill="white"/>
<path d="M92.7398 94.8696H2.83984V98.9996H92.7398V94.8696Z" fill="#A7A6A6"/>
<path d="M94.2398 100.49H1.33984V93.3599H94.2398V100.49ZM4.33984 97.4899H91.2398V96.3599H4.33984V97.4899Z" fill="white"/>
<path d="M2.83984 55.5801L8.65984 47.0601H86.7198L92.7398 55.5801H2.83984Z" fill="#E52A21"/>
<path d="M95.64 57.0801H0L7.87 45.5601H87.5L95.64 57.0801ZM5.68 54.0801H89.84L85.94 48.5601H9.45L5.68 54.0801Z" fill="white"/>
<path d="M32.8804 43.9299L30.5404 45.7699L24.3804 38.9999L45.8904 20.4399H49.2904L70.7704 40.4299L63.9604 46.3299L47.6404 32.3799L32.8804 43.9299Z" fill="#E52A21"/>
<path d="M63.9702 48.3099L47.6002 34.3199L30.3702 47.8099L22.2402 38.8699L45.3402 18.9399H49.8902L73.0202 40.4699L63.9702 48.3099ZM47.6802 30.4399L63.9502 44.3499L68.5202 40.3899L48.7002 21.9399H46.4502L26.5302 39.1299L30.7102 43.7299L47.6902 30.4399H47.6802Z" fill="white"/>
<path d="M32.8799 55.5799V42.9099L47.6399 32.3799L62.8999 43.9799V55.5799H32.8799Z" fill="#FFD103"/>
<path d="M64.4099 57.08H31.3799V42.14L47.6699 30.52L64.4099 43.24V57.08ZM34.3799 54.08H61.3999V44.72L47.6099 34.24L34.3799 43.68V54.08Z" fill="white"/>
<path d="M49.2903 1.83984C49.2903 1.83984 55.0503 3.03984 56.6403 4.19984C58.2303 5.35984 66.4203 3.01984 66.4203 3.01984V17.7798C66.4203 17.7798 62.1903 19.9798 56.3703 17.7798C50.5503 15.5798 49.2803 15.5798 49.2803 15.5798V1.83984H49.2903Z" fill="#E52A21"/>
<path d="M61.5702 20.26C59.9202 20.26 57.9802 19.99 55.8502 19.19C50.6502 17.23 49.2802 17.09 49.2202 17.09H47.7202L47.7902 15.59V0L49.6002 0.38C50.6202 0.59 55.7702 1.71 57.5302 3C58.2802 3.29 62.2802 2.65 66.0202 1.58L67.9302 1.03V18.69L67.1202 19.11C66.9902 19.18 64.8602 20.26 61.5702 20.26ZM50.7902 14.35C51.9202 14.63 53.8002 15.21 56.9102 16.38C60.6302 17.78 63.5702 17.2 64.9302 16.77V4.99C61.2802 5.92 57.2902 6.54 55.7602 5.42C55.0702 4.91 52.8302 4.23 50.8002 3.73V14.35H50.7902Z" fill="white"/>
<path d="M49.2901 1.83984H45.8901V20.4298H49.2901V1.83984Z" fill="#64A7DC"/>
<path d="M50.7901 21.9398H44.3901V0.339844H50.7901V21.9298V21.9398ZM47.3901 18.9398H47.7901V3.33984H47.3901V18.9298V18.9398Z" fill="white"/>
<path d="M13.7701 62.2798H8.33008V73.9598H13.7701V62.2798Z" fill="#64A7DC"/>
<path d="M26.19 62.2798H20.75V73.9598H26.19V62.2798Z" fill="#64A7DC"/>
<path d="M13.7701 76.9702H8.33008V88.6502H13.7701V76.9702Z" fill="#64A7DC"/>
<path d="M26.19 76.9702H20.75V88.6502H26.19V76.9702Z" fill="#64A7DC"/>
<path d="M75.0401 62.2798H69.6001V73.9598H75.0401V62.2798Z" fill="#64A7DC"/>
<path d="M87.46 62.2798H82.02V73.9598H87.46V62.2798Z" fill="#64A7DC"/>
<path d="M75.0401 76.9702H69.6001V88.6502H75.0401V76.9702Z" fill="#64A7DC"/>
<path d="M87.46 76.9702H82.02V88.6502H87.46V76.9702Z" fill="#64A7DC"/>
<path d="M47.5802 53.7901C52.0703 53.7901 55.7102 50.2308 55.7102 45.8401C55.7102 41.4495 52.0703 37.8901 47.5802 37.8901C43.0901 37.8901 39.4502 41.4495 39.4502 45.8401C39.4502 50.2308 43.0901 53.7901 47.5802 53.7901Z" fill="#A7DAEA"/>
<path d="M47.25 39.7402V46.4002H54.91" stroke="#64A7DC" stroke-width="0.5" stroke-miterlimit="10"/>
<path d="M40.5098 93.2999V74.6399C40.5098 74.6399 47.2198 63.9299 54.4698 74.6399V93.2999H40.5098Z" fill="#9E4217"/>
</g>
<defs>
<clipPath id="clip0_262_199">
<rect width="95.64" height="100.49" fill="white"/>
</clipPath>
</defs>
</svg>

<?xml version="1.0" encoding="UTF-8"?>
<svg id="Calque_2" data-name="Calque 2" xmlns="http://www.w3.org/2000/svg" viewBox="0 0 95.64 100.49">
  <defs>
    <style>
      .cls-1 {
        fill: none;
        stroke: #64a7dc;
        stroke-miterlimit: 10;
        stroke-width: .5px;
      }

      .cls-2 {
        fill: #a7a6a6;
      }

      .cls-3 {
        fill: #ffd103;
      }

      .cls-4 {
        fill: #a7daea;
      }

      .cls-5 {
        fill: #fff;
      }

      .cls-6 {
        fill: #64a7dc;
      }

      .cls-7 {
        fill: #9e4217;
      }

      .cls-8 {
        fill: #e52a21;
      }
    </style>
  </defs>
  <g id="Calque_1-2" data-name="Calque 1">
    <g>
      <g>
        <rect class="cls-3" x="2.84" y="55.58" width="89.9" height="39.29"/>
        <path class="cls-5" d="M94.24,96.37H1.34v-42.29h92.9v42.29ZM4.34,93.37h86.9v-36.29H4.34v36.29Z"/>
      </g>
      <g>
        <rect class="cls-2" x="2.84" y="94.87" width="89.9" height="4.13"/>
        <path class="cls-5" d="M94.24,100.49H1.34v-7.13h92.9v7.13ZM4.34,97.49h86.9v-1.13H4.34v1.13Z"/>
      </g>
      <g>
        <polygon class="cls-8" points="2.84 55.58 8.66 47.06 86.72 47.06 92.74 55.58 2.84 55.58"/>
        <path class="cls-5" d="M95.64,57.08H0l7.87-11.52h79.63l8.14,11.52ZM5.68,54.08h84.16l-3.9-5.52H9.45l-3.77,5.52Z"/>
      </g>
      <g>
        <polygon class="cls-8" points="32.88 43.93 30.54 45.77 24.38 39 45.89 20.44 49.29 20.44 70.77 40.43 63.96 46.33 47.64 32.38 32.88 43.93"/>
        <path class="cls-5" d="M63.97,48.31l-16.37-13.99-17.23,13.49-8.13-8.94,23.1-19.93h4.55l23.13,21.53-9.05,7.84ZM47.68,30.44l16.27,13.91,4.57-3.96-19.82-18.45h-2.25l-19.92,17.19,4.18,4.6,16.98-13.29Z"/>
      </g>
      <g>
        <polygon class="cls-3" points="32.88 55.58 32.88 42.91 47.64 32.38 62.9 43.98 62.9 55.58 32.88 55.58"/>
        <path class="cls-5" d="M64.41,57.08H31.38v-14.94l16.29-11.62,16.74,12.72v13.84ZM34.38,54.08h27.02v-9.36l-13.79-10.48-13.23,9.44v10.4Z"/>
      </g>
      <g>
        <path class="cls-8" d="M49.29,1.84s5.76,1.2,7.35,2.36,9.78-1.18,9.78-1.18v14.76s-4.23,2.2-10.05,0-7.09-2.2-7.09-2.2V1.84Z"/>
        <path class="cls-5" d="M61.57,20.26c-1.65,0-3.59-.27-5.72-1.07-5.2-1.96-6.57-2.1-6.63-2.1h-1.5l.07-1.5V0l1.81.38c1.02.21,6.17,1.33,7.93,2.62.75.29,4.75-.35,8.49-1.42l1.91-.55v17.66l-.81.42c-.13.07-2.26,1.15-5.55,1.15ZM50.79,14.35c1.13.28,3.01.86,6.12,2.03,3.72,1.4,6.66.82,8.02.39V4.99c-3.65.93-7.64,1.55-9.17.43-.69-.51-2.93-1.19-4.96-1.69v10.62Z"/>
      </g>
      <g>
        <rect class="cls-6" x="45.89" y="1.84" width="3.4" height="18.59"/>
        <path class="cls-5" d="M50.79,21.94h-6.4V.34h6.4v21.59ZM47.39,18.94h.4V3.34h-.4v15.59Z"/>
      </g>
    </g>
    <rect class="cls-6" x="8.33" y="62.28" width="5.44" height="11.68"/>
    <rect class="cls-6" x="20.75" y="62.28" width="5.44" height="11.68"/>
    <rect class="cls-6" x="8.33" y="76.97" width="5.44" height="11.68"/>
    <rect class="cls-6" x="20.75" y="76.97" width="5.44" height="11.68"/>
    <rect class="cls-6" x="69.6" y="62.28" width="5.44" height="11.68"/>
    <rect class="cls-6" x="82.02" y="62.28" width="5.44" height="11.68"/>
    <rect class="cls-6" x="69.6" y="76.97" width="5.44" height="11.68"/>
    <rect class="cls-6" x="82.02" y="76.97" width="5.44" height="11.68"/>
    <ellipse class="cls-4" cx="47.58" cy="45.84" rx="8.13" ry="7.95"/>
    <polyline class="cls-1" points="47.25 39.74 47.25 46.4 54.91 46.4"/>
    <path class="cls-7" d="M40.51,93.3v-18.66s6.71-10.71,13.96,0v18.66h-13.96Z"/>
  </g>
</svg>
